!!!!SEGMENT: Ser1004a-Requiem-Introit
!!!id: Ser1004a
!!!AGN: Mass; Introit
!!!voices: 4
!!!OPR: Requiem
!!!COM: Claudin de Sermisy
!!!OTL: Introit
**kern	**kern	**kern	**kern
*part4	*part3	*part2	*part1
*staff4	*staff3	*staff2	*staff1
*I"Bassus	*I"Tenor	*I"Altus	*I"Superius
*I'B	*I'T	*I'A	*I'S
*clefF4	*clefGv2	*clefGv2	*clefGv2
*k[b-]	*k[b-]	*k[b-]	*k[b-]
*M2/1	*M2/1	*M2/1	*M2/1
*met(C|)	*met(C|)	*met(C|)	*met(C|)
=1	=1	=1	=1
!!section: Introit
!!!OMD: Introit
!	!	!	!LO:TX:a:t=Cantus firmus&colon; Missa pro defunctis
1.F	0F	1.F	0c
2E	.	2G	.
=2	=2	=2	=2
2D	1F	1A	0d
2C	.	.	.
1BB-y	1G	1D	.
=3	=3	=3	=3
1AA	0A	1E	0c
1FF	.	1F	.
=4	=4	=4	=4
1C	1G	2.E	1c
.	.	4C	.
1D	1F	[1F	2A
.	.	.	2B-y
=5	=5	=5	=5
0C	0G	2F]	0c
.	.	4E	.
.	.	4D	.
.	.	1E	.
=6	=6	=6	=6
1r	0F	1F	1A
[1BB-y	.	1r	1B-y
=7	=7	=7	=7
2BB-]	0r	1.F	1r
2C	.	.	.
2D	.	.	[1F
2E	.	2G	.
=8	=8	=8	=8
1.F	0r	2A	2F]
.	.	2B-y	2G
.	.	1c	1A
2E	.	.	.
=9	=9	=9	=9
1D	1F	2r	1B-y
.	.	1F	.
1C	1G	.	[1c
.	.	2E	.
=10	=10	=10	=10
1r	0A	2F	2c]
.	.	2D	2F
1AA	.	2F	1c
.	.	2E	.
=11	=11	=11	=11
1AA	1A	0E	0c
2.C	1G	.	.
4BB-y	.	.	.
=12	=12	=12	=12
2.AA	1A	1E	1c
4GG	.	.	.
2FF	1A	1F	2.c
[2F	.	.	.
.	.	.	4B-y
=13	=13	=13	=13
2F]	2.c	2r	2A
2E	.	1c	2G
.	4B-y	.	.
2F	4A	.	1F
.	4G	.	.
2BB-y	2B-y	2d	.
=14	=14	=14	=14
1C	4A	1c	2.E
.	4G	.	.
.	1G	.	.
.	.	.	4D
1AA	.	[1c	1C
.	2F#i	.	.
=15	=15	=15	=15
0GG	0G	2c]	1D
.	.	4B-y	.
.	.	4A	.
.	.	[1B-y	[1d
=16	=16	=16	=16
1.D	1F	2B-]	0d]
.	.	2A	.
.	1F	1A	.
2C	.	.	.
=17	=17	=17	=17
1BB-y	1G	1D	1d
2.AA	1A	2.E	[1c
4BB-y	.	4D	.
=18	=18	=18	=18
2C	2G	2E	2c]
2D	2F	1F	2B-y
1C	1G	.	1c
.	.	2E	.
=19	=19	=19	=19
1FF	0F	1F	0A
1r	.	1A	.
=20	=20	=20	=20
1D	1r	2.A	0r
.	.	4G	.
[1D	1A	4F	.
.	.	4E	.
.	.	[2F	.
=21	=21	=21	=21
2D]	1.A	2F]	0r
4C	.	4E	.
4BB-y	.	4D	.
1C	.	1E	.
.	4G	.	.
.	4F	.	.
=22	=22	=22	=22
0BB-y	1G	1D	1d
.	[1F	1r	[1d
=23	=23	=23	=23
0FF	0F]	1A	2d]
.	.	.	4c
.	.	.	4B-y
.	.	[1A	1c
=24	=24	=24	=24
0r	0r	2A]	0B-y
.	.	4G	.
.	.	4F	.
.	.	1G	.
=25	=25	=25	=25
1D	0r	1F	2.A
.	.	.	4G
2C	.	1r	2E
[2D	.	.	[2F
=26	=26	=26	=26
4D]	0r	1A	4F]
4C	.	.	4E
2AA	.	.	4D
.	.	.	4C
2BB-y	.	2G	2D
2AA	.	[2A	2E
=27	=27	=27	=27
4FF	1A	4A]	1F
4GG	.	4G	.
4AA	.	2F	.
4BB-y	.	.	.
1C	2G	4E	1r
.	.	4D	.
.	[2A	2E	.
=28	=28	=28	=28
1FF	4A]	1F	1A
.	4G	.	.
.	1F	.	.
1r	.	1C	1G
.	2E	.	.
=29	=29	=29	=29
1D	1F	2r	2A
.	.	1F	2A
1C	1G	.	2.c
.	.	2E	.
.	.	.	4B-y
=30	=30	=30	=30
1D	0F	2.F	4A
.	.	.	4G
.	.	.	1A
.	.	4G	.
1D	.	2A	.
.	.	2F	[2d
=31	=31	=31	=31
2.F	1r	2.A	2d]
.	.	.	2c
4E	.	4G	.
2.D	1A	2.F	[1d
4C	.	4E	.
=32	=32	=32	=32
1BB-y	1G	1D	1d]
1AA	1A	1E	[1c
=33	=33	=33	=33
0FF	1A	2.F	2c]
.	.	.	2c
.	.	4G	.
.	[1c	4A	1f
.	.	4B-y	.
.	.	[2A	.
=34	=34	=34	=34
1C	2c]	2A]	1e
.	2B-y	1G	.
1D	1A	.	1d
.	.	2F#i	.
=35	=35	=35	=35
1.E-i	0G	1G	0B-y
.	.	1r	.
2D	.	.	.
=36	=36	=36	=36
1C	1A	1E	1c
[1BB-y	[1B-y	[1F	[1d
=37	=37	=37	=37
1BB-]	2B-]	2F]	1d]
.	2A	2D	.
1C	1G	1E	2.c
.	.	.	4B-y
=38	=38	=38	=38
1D	1F	4F	4A
.	.	4G	4G
.	.	4A	1F
.	.	4B-y	.
1C	1G	[1c	.
.	.	.	2E
=39	=39	=39	=39
1FF	1A	2c]	2F
.	.	2A	2c
1BB-y	2G	1B-y	1d
.	[2F	.	.
=40	=40	=40	=40
0C	2F]	0G	0c
.	4E	.	.
.	4D	.	.
.	1E	.	.
=41	=41	=41	=41
0FFl	0Fl	0Al	0cl
=42||	=42||	=42||	=42||
*M2/1	*M2/1	*M2/1	*M2/1
*met(C|)	*met(C|)	*met(C|)	*met(C|)
!!section: Et tibi
!!!OMD: Et tibi
1.F	0r	1r	1.A
.	.	[1F	.
2G	.	.	2B-y
=43	=43	=43	=43
1A	0F	2F]	1c
.	.	2G	.
1D	.	2A	1d
.	.	[2F	.
=44	=44	=44	=44
1r	1G	2F]	0c
.	.	2E	.
2r	1A	1F	.
2F	.	.	.
=45	=45	=45	=45
4D	1A	2r	1d
4C	.	.	.
4D	.	2F	.
4E	.	.	.
1F	2r	4D	[1d
.	.	4C	.
.	2A	4D	.
.	.	4E	.
=46	=46	=46	=46
1D	1.A	1F	2d]
.	.	.	2d
1AA	.	1E	1c
.	2A	.	.
=47	=47	=47	=47
0AA	1A	0E	0c
.	1A	.	.
=48	=48	=48	=48
1FF	1A	1F	1c
1BB-y	[1B-y	1F	1d
=49	=49	=49	=49
1GG	1B-]	1G	1d
1AA	[1A	2E	1c
.	.	[2F	.
=50	=50	=50	=50
0BB-y	2A]	4F]	0d
.	.	4E	.
.	4G	4D	.
.	4F	4C	.
.	2G	1D	.
.	2G	.	.
=51	=51	=51	=51
0AA;	0A;	0E;	0c;
=52	=52	=52	=52
0BB-y	0F	0D	0B-y
=53	=53	=53	=53
1GG	1G	1D	1B-y
1FF	1A	1F	1c
=54	=54	=54	=54
1FF	1A	2r	1c
.	.	2C	.
2r	2r	2C	2r
2FF	2A	2C	2c
=55	=55	=55	=55
2FF	2A	1F	2c
2FF	2A	.	2c
2AA	1A	1E	2c
2AA	.	.	2c
=56	=56	=56	=56
1D	1A	1.F	1d
1AA	1A	.	[1c
.	.	2E	.
=57	=57	=57	=57
1AA	1A	1E	1c]
2AA	1A	2r	1c
2AA	.	2E	.
=58	=58	=58	=58
1AA	2A	2E	2c
.	2A	2E	2c
2.FF	1A	2.F	1c
4GG	.	4E	.
=59	=59	=59	=59
2AA	1F	2C	2r
2BB-y	.	2.D	2.B-y
1GG	1G	.	.
.	.	4C	4A
.	.	4D	4B-y
.	.	4E	4c
=60	=60	=60	=60
1FF	1A	1F	2d
.	.	.	2c
[1GG	[1G	1D	1B-y
=61	=61	=61	=61
2GG]	1G]	1.B-y	1.d
2GG	.	.	.
1BB-y	1F	.	.
.	.	2B-y	2d
=62	=62	=62	=62
0FFl	0Fl	0Al	0cl
==	==	==	==
*-	*-	*-	*-
!!!system-decoration: s1,s2,s3,s4
!!!RDF**kern: i = editorial accidental
!!!RDF**kern: l = terminal long
!!!ENC: Max Blistain 
!!!END: 2025/11/11
!!!EED: Benjamin Ory
!!!EEV: 2025/11/17
!!!YEC: Copyright 2025 Benjamin Ory, All Rights Reserved
!!!ONB: Translated from MusicXML on 2025/11/17